web/ui/src/assets/svgs/index/code-project-btn.svg

<svg height="56" viewBox="0 0 56 56" width="56" xmlns="http://www.w3.org/2000/svg"><g fill="none" fill-rule="evenodd"><circle cx="28" cy="28" fill="#fff0df" r="28"/><path d="m7 6h44v44h-44z" fill="#000" fill-rule="nonzero" opacity="0"/><g transform="translate(7 6)"><path d="m0 0h44v44h-44z"/><path d="m40 13.8181914v23.3967305c0 1.4514258-.9736523 2.646-2.2090781 2.7736172l-.2209219.0114609h-31.14165234c-1.26492188 0-2.30726954-1.1143477-2.41853907-2.5314609l-.00980859-.2536172v-23.3967305zm-17.8756523 3.5934609-.0605391.18-3.3872695 12.6458086c-.2253975.8373699.2415963 1.7051728 1.064618 1.9783533.8230217.2731804 1.7162446-.1431343 2.0363038-.9490837l.0605391-.1816524 3.3873047-12.6458086c.2224617-.836501-.245007-1.7015577-1.0666438-1.9738375-.8216367-.2722798-1.7131975.142412-2.0343132.9462203zm7.512539 1.368c-.5173662.1530829-.9139578.570253-1.0406953 1.0946954-.1186583.4620042-.026365.9528405.252 1.3401914l.1292695.1538086 2.8701563 3.0158437-2.8701563 3.0158086c-.2789566.2960735-.4335963.6879458-.4320122 1.0947305 0 .4090781.1554732.8034609.4320122 1.0930781.2694718.2884733.6459794.4530515 1.0407305.4549219.3262987-.0011752.6422908-.1144036.8950781-.3207305l.1456524-.1341914 3.9108867-4.1072695c.5260523-.5597654.5796396-1.4145342.1276172-2.0356172l-.1276172-.1538438-3.9108867-4.110539c-.3623386-.3880473-.9103308-.5425358-1.422-.4008868zm-16.2326953.2241563-.1521914.1276172-3.91092187 4.1073047c-.52644335.5589586-.58006672 1.4136237-.12761719 2.034l.12761719.150539 3.91092187 4.1089571c.2714855.280633.6463175.4374439 1.0367602.4337928.3904426-.0037802.7622224-.1676962 1.0283179-.4534452.514654-.552579.574603-1.3891438.144-2.0094609l-.1276172-.1587305-2.868539-3.0158086 2.868539-3.0141914c.5280633-.6204707.5069381-1.5382907-.0491132-2.1338086-.4913465-.5282943-1.3006916-.6043041-1.8818086-.1767304zm-9.4041914-12.22200001c0-1.44980859.97034766-2.64107812 2.20746094-2.77034765l.22088672-.01146094h31.14165234c1.2649219.00165234 2.304 1.11107813 2.4201563 2.52653906l.0098437.25526953v3.76365231h-36z" fill="#ffa940" fill-rule="nonzero"/></g></g></svg>

<?xml version="1.0" encoding="UTF-8"?>
<svg width="56px" height="56px" viewBox="0 0 56 56" version="1.1" xmlns="http://www.w3.org/2000/svg" xmlns:xlink="http://www.w3.org/1999/xlink">
    <title>异常代码</title>
    <g id="页面-1" stroke="none" stroke-width="1" fill="none" fill-rule="evenodd">
        <g id="建木CI-图形编辑器入口备份-3" transform="translate(-315.000000, -104.000000)">
            <g id="异常代码" transform="translate(315.000000, 104.000000)">
                <circle id="椭圆形备份" fill="#FFF0DF" cx="28" cy="28" r="28"></circle>
                <rect id="矩形" fill="#000000" fill-rule="nonzero" opacity="0" x="7" y="6" width="44" height="44"></rect>
                <g id="编组-13" transform="translate(7.000000, 6.000000)">
                    <rect id="矩形" x="0" y="0" width="44" height="44"></rect>
                    <path d="M40,13.8181914 L40,37.2149219 C40,38.6663477 39.0263477,39.8609219 37.7909219,39.9885391 L37.57,40 L6.42834766,40 C5.16342578,40 4.12107812,38.8856523 4.00980859,37.4685391 L4,37.2149219 L4,13.8181914 L40,13.8181914 Z M22.1243477,17.4116523 L22.0638086,17.5916523 L18.6765391,30.2374609 C18.4511416,31.0748308 18.9181354,31.9426337 19.7411571,32.2158142 C20.5641788,32.4889946 21.4574017,32.0726799 21.7774609,31.2667305 L21.838,31.0850781 L25.2253047,18.4392695 C25.4477664,17.6027685 24.9802977,16.7377118 24.1586609,16.465432 C23.3370242,16.1931522 22.4454634,16.607844 22.1243477,17.4116523 L22.1243477,17.4116523 Z M29.6368867,18.7796523 C29.1195205,18.9327352 28.7229289,19.3499053 28.5961914,19.8743477 C28.4775331,20.3363519 28.5698264,20.8271882 28.8481914,21.2145391 L28.9774609,21.3683477 L31.8476172,24.3841914 L28.9774609,27.4 C28.6985043,27.6960735 28.5438646,28.0879458 28.5454487,28.4947305 C28.5454487,28.9038086 28.7009219,29.2981914 28.9774609,29.5878086 C29.2469327,29.8762819 29.6234403,30.0408601 30.0181914,30.0427305 C30.3444901,30.0415553 30.6604822,29.9283269 30.9132695,29.722 L31.0589219,29.5878086 L34.9698086,25.4805391 C35.4958609,24.9207737 35.5494482,24.0660049 35.0974258,23.4449219 L34.9698086,23.2910781 L31.0589219,19.1805391 C30.6965833,18.7924918 30.1485911,18.6380033 29.6369219,18.7796523 L29.6368867,18.7796523 Z M13.4041914,19.0038086 L13.252,19.1314258 L9.34107813,23.2387305 C8.81463478,23.7976891 8.76101141,24.6523542 9.21346094,25.2727305 L9.34107813,25.4232695 L13.252,29.5322266 C13.5234855,29.8128596 13.8983175,29.9696705 14.2887602,29.9660194 C14.6792028,29.9622392 15.0509826,29.7983232 15.3170781,29.5125742 C15.8317321,28.9599952 15.8916811,28.1234304 15.4610781,27.5031133 L15.3334609,27.3443828 L12.4649219,24.3285742 L15.3334609,21.3143828 C15.8615242,20.6939121 15.840399,19.7760921 15.2843477,19.1805742 C14.7930012,18.6522799 13.9836561,18.5762701 13.4025391,19.0038438 L13.4041914,19.0038086 Z M4,6.78180859 C4,5.332 4.97034766,4.14073047 6.20746094,4.01146094 L6.42834766,4 L37.57,4 C38.8349219,4.00165234 39.874,5.11107813 39.9901563,6.52653906 L40,6.78180859 L40,10.5454609 L4,10.5454609 L4,6.78180859 Z" id="形状" fill="#FFA940" fill-rule="nonzero"></path>
                </g>
            </g>
        </g>
    </g>
</svg>
